X: 11642
T: HERE'S TO ALL AROUND ARDMILLAN
C: J. Warden.--Copyright.
Q: "Lively."
%R: jig
B: W. Hamilton "Universal Tune-Book" Vol. 1 Glasgow 1844 p.164 #2
S: http://imslp.org/wiki/Hamilton's_Universal_Tune-Book_(Various)
Z: 2016 John Chambers <jc:trillian.mit.edu>
M: 6/8
L: 1/8
K: Eb
%%slurgraces yes
%%graceslurs yes
% - - - - - - - - - - - - - - - - - - - - - - - - -
C |\
(B,C)E E2F | G2A (GF)E | (B,C)E E2F | G2c B2G |\
(B,C)E E2F | G2A (GF)E | G>FE (cd)e | (BA)G {G}F2E |]
(GA)B E2G | (AB)c (cB)A | (GA)B E2c | {c}B2G {G}F2E |\
(GA)B E2B | cde c2B | ez cB zG | (GF)E {G}F2E |]
% - - - - - - - - - - - - - - - - - - - - - - - - -

%%sep 1 1 500
%%sep 1 1 500

